azure-docs/api_bing_custom_search.svg

<?xml version="1.0" encoding="UTF-8"?>
<svg width="512px" height="512px" viewBox="0 0 512 512" version="1.1" xmlns="http://www.w3.org/2000/svg" xmlns:xlink="http://www.w3.org/1999/xlink">
    <!-- Generator: Sketch 46.2 (44496) - http://www.bohemiancoding.com/sketch -->
    <title>bingCustomSearch-wht-bluBG-512p</title>
    <desc>Created with Sketch.</desc>
    <defs></defs>
    <g id="PRODUCTION-ICONS" stroke="none" stroke-width="1" fill="none" fill-rule="evenodd">
        <g id="bingCustomSearch-wht-bluBG-512p">
            <g id="Bing-Custom-Search">
                <rect id="Rectangle-3-Copy-19" fill="#0063B1" x="0" y="0" width="512" height="512"></rect>
                <path d="M272.183192,312.939256 C228.212986,312.939256 192.516712,277.299887 192.516712,233.272776 C192.516712,189.245665 228.212986,153.606296 272.183192,153.606296 C316.153398,153.606296 351.849672,189.245665 351.849672,233.272776 C351.849672,277.299887 316.153398,312.939256 272.183192,312.939256 M272.183192,130.844444 C215.585849,130.844444 169.754861,176.732337 169.754861,233.272776 C169.754861,259.118858 179.405886,282.671684 195.208301,300.69907 L113.777778,382.129593 L129.870407,398.222222 L212.04069,316.057629 C228.935674,328.354719 249.671721,335.701107 272.183192,335.701107 C328.780536,335.701107 374.611523,289.813215 374.611523,233.272776 C374.611523,176.732337 328.780536,130.844444 272.183192,130.844444" id="Fill-1" fill="#FFFFFF"></path>
                <path d="M272.142222,256 C259.575467,256 249.386667,245.8112 249.386667,233.244444 C249.386667,220.677689 259.575467,210.488889 272.142222,210.488889 C284.708978,210.488889 294.897778,220.677689 294.897778,233.244444 C294.897778,245.8112 284.708978,256 272.142222,256 L272.142222,256 Z M315.218489,221.343289 C314.228622,217.7536 312.783644,214.328889 310.980267,211.160178 L317.954844,198.644622 L306.742044,187.431822 L294.226489,194.4064 C291.057778,192.603022 287.633067,191.158044 284.037689,190.168178 L280.072533,176.355556 L264.211911,176.355556 L260.246756,190.168178 C256.651378,191.158044 253.226667,192.603022 250.057956,194.4064 L237.5424,187.431822 L226.3296,198.644622 L233.304178,211.160178 C231.5008,214.328889 230.055822,217.7536 229.065956,221.343289 L215.253333,225.308444 L215.253333,241.180444 L229.065956,245.1456 C230.055822,248.735289 231.5008,252.16 233.304178,255.328711 L226.3296,267.844267 L237.5424,279.057067 L250.057956,272.082489 C253.226667,273.885867 256.651378,275.330844 260.246756,276.320711 L264.211911,290.133333 L280.072533,290.133333 L284.037689,276.320711 C287.633067,275.330844 291.057778,273.885867 294.226489,272.082489 L306.742044,279.057067 L317.954844,267.844267 L310.980267,255.328711 C312.783644,252.16 314.228622,248.735289 315.218489,245.1456 L329.031111,241.180444 L329.031111,225.308444 L315.218489,221.343289 Z" id="Fill-3" fill="#FFFFFF"></path>
            </g>
        </g>
    </g>
</svg>

<svg width="512" height="512" xmlns="http://www.w3.org/2000/svg"><g fill="none" fill-rule="evenodd"><path fill="#0063B1" d="M0 0h512v512H0z"/><path d="M272.183 312.94c-43.97 0-79.666-35.64-79.666-79.667s35.696-79.667 79.666-79.667 79.667 35.64 79.667 79.667-35.697 79.666-79.667 79.666m0-182.095c-56.597 0-102.428 45.888-102.428 102.429 0 25.846 9.65 49.399 25.453 67.426l-81.43 81.43 16.092 16.093 82.17-82.164c16.896 12.297 37.632 19.643 60.143 19.643 56.598 0 102.429-45.888 102.429-102.428S328.78 130.844 272.183 130.844" fill="#FFF"/><path d="M272.142 256c-12.567 0-22.755-10.189-22.755-22.756 0-12.566 10.188-22.755 22.755-22.755 12.567 0 22.756 10.189 22.756 22.755 0 12.567-10.189 22.756-22.756 22.756zm43.076-34.657a44.596 44.596 0 0 0-4.238-10.183l6.975-12.515-11.213-11.213-12.516 6.974a44.533 44.533 0 0 0-10.188-4.238l-3.965-13.812h-15.861l-3.965 13.812a44.533 44.533 0 0 0-10.189 4.238l-12.516-6.974-11.212 11.213 6.974 12.515a44.596 44.596 0 0 0-4.238 10.183l-13.813 3.965v15.872l13.813 3.966a44.596 44.596 0 0 0 4.238 10.183l-6.974 12.515 11.212 11.213 12.516-6.975a44.533 44.533 0 0 0 10.189 4.239l3.965 13.812h15.86l3.966-13.812a44.533 44.533 0 0 0 10.188-4.239l12.516 6.975 11.213-11.213-6.975-12.515a44.596 44.596 0 0 0 4.238-10.183l13.813-3.966v-15.872l-13.813-3.965z" fill="#FFF"/></g></svg>
